Hatter-kde-dark/actions/24/tools-media-optical-burn-image.svg

<?xml version="1.0" encoding="UTF-8"?>
<svg viewBox="0 0 24 24" xmlns="http://www.w3.org/2000/svg">
 <defs id="defs3051">
  <style id="current-color-scheme" type="text/css">.ColorScheme-Text {
        color:#dedede;
      }</style>
 </defs>
 <path class="ColorScheme-Text" d="m12 4c-4.432 0-8 3.568-8 8s3.568 8 8 8 8-3.568 8-8-3.568-8-8-8zm0 1c3.878 0 7 3.122 7 7s-3.122 7-7 7-7-3.122-7-7 3.122-7 7-7zm0 1c-3.324 0-6 2.676-6 6h3c0-1.662 1.338-3 3-3v-3zm0 4c-1.108 0-2 0.892-2 2s0.892 2 2 2 2-0.892 2-2-0.892-2-2-2zm0 1c0.554 0 1 0.446 1 1s-0.446 1-1 1-1-0.446-1-1 0.446-1 1-1zm3 1c0 1.662-1.338 3-3 3v3c3.324 0 6-2.676 6-6h-3z" fill="currentColor"/>
</svg>

<svg xmlns="http://www.w3.org/2000/svg" viewBox="0 0 24 24">
  <defs id="defs3051">
    <style type="text/css" id="current-color-scheme">
      .ColorScheme-Text {
        color:#dedede;
      }
      </style>
  </defs>
 <path style="fill:currentColor;fill-opacity:1;stroke:none" 
     d="M 12 4 C 7.568 4 4 7.568 4 12 C 4 16.432 7.568 20 12 20 C 16.432 20 20 16.432 20 12 C 20 7.568 16.432 4 12 4 z M 12 5 C 15.878 5 19 8.122 19 12 C 19 15.878 15.878 19 12 19 C 8.122 19 5 15.878 5 12 C 5 8.122 8.122 5 12 5 z M 12 6 C 8.676004 6 6 8.676 6 12 L 9 12 C 9 10.338 10.338002 9 12 9 L 12 6 z M 12 10 C 10.892001 10 10 10.892 10 12 C 10 13.108 10.892001 14 12 14 C 13.107999 14 14 13.108 14 12 C 14 10.892 13.107999 10 12 10 z M 12 11 C 12.553999 11 13 11.446 13 12 C 13 12.554 12.553999 13 12 13 C 11.446001 13 11 12.554 11 12 C 11 11.446 11.446001 11 12 11 z M 15 12 C 15 13.662 13.661998 15 12 15 L 12 18 C 15.323996 18 18 15.324 18 12 L 15 12 z "
     class="ColorScheme-Text"
     />
</svg>
